icon-themes/sifr_svg/cmd/sc_sphere.svg

<svg viewBox="0 0 16 16" xmlns="http://www.w3.org/2000/svg"><g fill="#555753"><path d="m8 0a8 8 0 0 0 -8 8 8 8 0 0 0 8 8 8 8 0 0 0 8-8 8 8 0 0 0 -8-8zm0 2c.1 0 .2355658.0354406.4648438.2617188.2292778.2262781.5031079.6329029.7382812 1.1816406.0786135.1834314.1451187.4031052.2148438.6152344-.4604609-.0375241-.9331553-.0585938-1.4179688-.0585938s-.957508.0210697-1.4179688.0585938c.0697251-.2121292.1362303-.431803.2148438-.6152344.2351733-.5487377.5090035-.9553625.7382812-1.1816406.2292779-.2262783.365887-.2617188.4648438-.2617188zm-3.1152344.8671875c-.1893029.4726489-.3461926.9912938-.4765625 1.5410156-.5497218.1303699-1.0683667.2872596-1.5410156.4765625.4992773-.8265566 1.1910214-1.5183007 2.0175781-2.0175781zm6.2304684 0c.826557.4992774 1.518301 1.1910215 2.017578 2.0175781-.472648-.1893029-.991293-.3461926-1.541015-.4765625-.13037-.5497218-.28726-1.0683667-.476563-1.5410156zm-3.115234 3.1328125c.6564123 0 1.2758584.0542584 1.8691406.1308594.076601.5932822.1308594 1.2127283.1308594 1.8691406s-.0542584 1.2758584-.1308594 1.8691406c-.5932822.076601-1.2127283.1308594-1.8691406.1308594s-1.2758584-.0542584-1.8691406-.1308594c-.076601-.5932822-.1308594-1.2127283-.1308594-1.8691406s.0542584-1.2758584.1308594-1.8691406c.5932822-.076601 1.2127283-.1308594 1.8691406-.1308594zm-3.9414062.5820312c-.0375241.4604608-.0585938.9331553-.0585938 1.4179688s.0210697.9575079.0585938 1.4179688c-.2121292-.0697251-.431803-.1362303-.6152344-.2148438-.5487377-.2351733-.9553625-.5090034-1.1816406-.7382812-.2262783-.229278-.2617188-.3648438-.2617188-.4648438 0-.0989568.0354406-.2355659.2617188-.4648438.2262781-.2292778.6329029-.5031079 1.1816406-.7382812.1834314-.0786135.4031052-.1451187.6152344-.2148438zm7.8828122 0c.212129.0697251.431803.1362303.615235.2148438.543359.2351733.955362.5090035 1.18164.7382812.226278.2292779.261719.365887.261719.4648438 0 .1-.035441.2355658-.261719.4648438-.226278.2292778-.638281.5031079-1.18164.7382812-.183432.0786135-.403106.1451187-.615235.2148438.037524-.4604609.058594-.9331553.058594-1.4179688s-.02107-.957508-.058594-1.4179688zm-9.0742185 4.5332028c.4726489.189303.9912938.346193 1.5410156.476563.1303699.549722.2872596 1.068367.4765625 1.541015-.8265567-.499277-1.5183008-1.191021-2.0175781-2.017578zm10.2656245 0c-.499277.826557-1.191021 1.518301-2.017578 2.017578.189303-.472648.346193-.991293.476563-1.541015.549722-.13037 1.068367-.28726 1.541015-.476563zm-6.5507808.826172c.4604608.037524.9331553.058594 1.4179688.058594s.9575079-.02107 1.4179688-.058594c-.0697251.212129-.1362303.431803-.2148438.615235-.2351733.543359-.5090034.955362-.7382812 1.18164-.229278.226278-.3648438.261719-.4648438.261719-.0989568 0-.2355659-.035441-.4648438-.261719-.2292778-.226278-.5031079-.638281-.7382812-1.18164-.0786135-.183432-.1451187-.403106-.2148438-.615235z"/><path d="m8 2c-3.34 0-6 2.66-6 6s2.66 6 6 6 6-2.66 6-6-2.66-6-6-6z" opacity=".35"/></g></svg>

<svg xmlns="http://www.w3.org/2000/svg" viewBox="0 0 16 16">
  <path
     style="fill:#555753"
     d="M 8 0 A 8 8 0 0 0 0 8 A 8 8 0 0 0 8 16 A 8 8 0 0 0 16 8 A 8 8 0 0 0 8 0 z M 8 2 C 8.1 2 8.2355658 2.0354406 8.4648438 2.2617188 C 8.6941216 2.4879969 8.9679517 2.8946217 9.203125 3.4433594 C 9.2817385 3.6267908 9.3482437 3.8464646 9.4179688 4.0585938 C 8.9575079 4.0210697 8.4848135 4 8 4 C 7.5151865 4 7.042492 4.0210697 6.5820312 4.0585938 C 6.6517563 3.8464646 6.7182615 3.6267908 6.796875 3.4433594 C 7.0320483 2.8946217 7.3058785 2.4879969 7.5351562 2.2617188 C 7.7644341 2.0354405 7.9010432 2 8 2 z M 4.8847656 2.8671875 C 4.6954627 3.3398364 4.538573 3.8584813 4.4082031 4.4082031 C 3.8584813 4.538573 3.3398364 4.6954627 2.8671875 4.8847656 C 3.3664648 4.058209 4.0582089 3.3664649 4.8847656 2.8671875 z M 11.115234 2.8671875 C 11.941791 3.3664649 12.633535 4.058209 13.132812 4.8847656 C 12.660164 4.6954627 12.141519 4.538573 11.591797 4.4082031 C 11.461427 3.8584813 11.304537 3.3398364 11.115234 2.8671875 z M 8 6 C 8.6564123 6 9.2758584 6.0542584 9.8691406 6.1308594 C 9.9457416 6.7241416 10 7.3435877 10 8 C 10 8.6564123 9.9457416 9.2758584 9.8691406 9.8691406 C 9.2758584 9.9457416 8.6564123 10 8 10 C 7.3435877 10 6.7241416 9.9457416 6.1308594 9.8691406 C 6.0542584 9.2758584 6 8.6564123 6 8 C 6 7.3435877 6.0542584 6.7241416 6.1308594 6.1308594 C 6.7241416 6.0542584 7.3435877 6 8 6 z M 4.0585938 6.5820312 C 4.0210697 7.042492 4 7.5151865 4 8 C 4 8.4848135 4.0210697 8.9575079 4.0585938 9.4179688 C 3.8464646 9.3482437 3.6267908 9.2817385 3.4433594 9.203125 C 2.8946217 8.9679517 2.4879969 8.6941216 2.2617188 8.4648438 C 2.0354405 8.2355658 2 8.1 2 8 C 2 7.9010432 2.0354406 7.7644341 2.2617188 7.5351562 C 2.4879969 7.3058784 2.8946217 7.0320483 3.4433594 6.796875 C 3.6267908 6.7182615 3.8464646 6.6517563 4.0585938 6.5820312 z M 11.941406 6.5820312 C 12.153535 6.6517563 12.373209 6.7182615 12.556641 6.796875 C 13.1 7.0320483 13.512003 7.3058785 13.738281 7.5351562 C 13.964559 7.7644341 14 7.9010432 14 8 C 14 8.1 13.964559 8.2355658 13.738281 8.4648438 C 13.512003 8.6941216 13.1 8.9679517 12.556641 9.203125 C 12.373209 9.2817385 12.153535 9.3482437 11.941406 9.4179688 C 11.97893 8.9575079 12 8.4848135 12 8 C 12 7.5151865 11.97893 7.042492 11.941406 6.5820312 z M 2.8671875 11.115234 C 3.3398364 11.304537 3.8584813 11.461427 4.4082031 11.591797 C 4.538573 12.141519 4.6954627 12.660164 4.8847656 13.132812 C 4.0582089 12.633535 3.3664648 11.941791 2.8671875 11.115234 z M 13.132812 11.115234 C 12.633535 11.941791 11.941791 12.633535 11.115234 13.132812 C 11.304537 12.660164 11.461427 12.141519 11.591797 11.591797 C 12.141519 11.461427 12.660164 11.304537 13.132812 11.115234 z M 6.5820312 11.941406 C 7.042492 11.97893 7.5151865 12 8 12 C 8.4848135 12 8.9575079 11.97893 9.4179688 11.941406 C 9.3482437 12.153535 9.2817385 12.373209 9.203125 12.556641 C 8.9679517 13.1 8.6941216 13.512003 8.4648438 13.738281 C 8.2355658 13.964559 8.1 14 8 14 C 7.9010432 14 7.7644341 13.964559 7.5351562 13.738281 C 7.3058784 13.512003 7.0320483 13.1 6.796875 12.556641 C 6.7182615 12.373209 6.6517563 12.153535 6.5820312 11.941406 z "
     />
  <path
     style="fill:#555753;opacity:0.35"
     d="M 8 2 C 4.66 2 2 4.66 2 8 C 2 11.34 4.66 14 8 14 C 11.34 14 14 11.34 14 8 C 14 4.66 11.34 2 8 2 z "
     />
</svg>
